Icons/com_cleanmaster_mguard.svg

<svg viewBox="0 0 48 48" xmlns:xlink="http://www.w3.org/1999/xlink">
 <defs>
  <linearGradient id="0">
   <stop stop-opacity="0"/>
   <stop offset="1"/>
  </linearGradient>
  <linearGradient xlink:href="#0" id="1" gradientUnits="userSpaceOnUse" gradientTransform="translate(4e-7,-48)" y1="47" x2="0" y2="1"/>
  <clipPath id="2">
   <g transform="translate(0,-1004.3622)">
    <rect rx="4" y="1005.36" x="1" height="46" width="46" fill="#1890d0"/>
   </g>
  </clipPath>
  <clipPath id="3">
   <g transform="translate(0,-1004.3622)">
    <rect rx="4" y="1005.36" x="1" height="46" width="46" fill="#1890d0"/>
   </g>
  </clipPath>
 </defs>
 <g>
  <g transform="translate(0,-1004.3622)">
   <path d="m 5,1006.3622 c -2.216,0 -4,1.784 -4,4 l 0,37.25 c 0,2.216 1.784,4 4,4 l 38,0 c 2.216,0 4,-1.784 4,-4 l 0,-37.25 c 0,-2.216 -1.784,-4 -4,-4 l -38,0 z m -4,41.5 0,0.5 c 0,2.216 1.784,4 4,4 l 38,0 c 2.216,0 4,-1.784 4,-4 l 0,-0.5 c 0,2.216 -1.784,4 -4,4 l -38,0 c -2.216,0 -4,-1.784 -4,-4 z" opacity="0.02"/>
   <path d="m 1,1047.6122 0,0.25 c 0,2.216 1.784,4 4,4 l 38,0 c 2.216,0 4,-1.784 4,-4 l 0,-0.25 c 0,2.216 -1.784,4 -4,4 l -38,0 c -2.216,0 -4,-1.784 -4,-4 z" opacity="0.05"/>
   <rect width="46" height="46" x="1" y="1005.61" rx="4" opacity="0.1"/>
  </g>
 </g>
 <g>
  <g transform="translate(0,-1004.3622)">
   <rect rx="4" y="1005.36" x="1" height="46" width="46" fill="#1e96c8"/>
  </g>
 </g>
 <g>
  <rect transform="scale(1,-1)" width="46" height="46" x="1" y="-46.998" rx="4" opacity="0.1" fill="url(#1)"/>
 </g>
 <g>
  <g clip-path="url(#2)">
   <g opacity="0.1">
    <g>
     <path d="M 16.148438 18.378906 C 16.386719 18.039062 16.921875 17.351562 17.335938 16.855469 L 17.636719 16.46875 L 22.699219 16.46875 L 25.257812 13.039062 C 26.246094 11.441406 27.179688 9.980469 27.339844 9.796875 C 27.976562 9.058594 29.289062 9.703125 29.277344 10.753906 L 25.671875 16.375 L 28.046875 16.429688 C 29.355469 16.457031 30.421875 16.523438 30.421875 16.574219 C 30.421875 16.628906 30.980469 16.480469 30.726562 16.882812 C 30.46875 17.289062 30.128906 17.929688 29.972656 18.308594 L 29.683594 19 L 15.71875 19 Z M 16.148438 18.378906 "/>
     <path d="M 12.839844 36.457031 C 12.632812 36.160156 12.417969 35.441406 12.351562 34.855469 C 12.289062 34.273438 12.207031 33.484375 12.167969 33.101562 C 12.035156 31.824219 12.996094 26.601562 13.402344 24.957031 C 13.621094 24.066406 14.101562 22.585938 14.46875 21.667969 L 15.132812 20 L 25.257812 20 L 25.257812 21.382812 C 25.253906 23.332031 24.824219 24.730469 26.550781 26.707031 L 27.847656 28.195312 C 25.917969 26.160156 26.484375 23.667969 26.523438 21.265625 C 26.519531 20.859375 26.507812 20 27.789062 20 C 29 20 29.804688 20.035156 29.691406 20.332031 C 29.351562 21.214844 29.167969 22.664062 29.253906 23.746094 C 29.378906 25.292969 30.027344 26.414062 31.660156 27.914062 C 33.902344 29.96875 33.941406 32.179688 34.046875 32.992188 C 34.195312 34.09375 33.75 35.328125 32.914062 36.164062 C 32.328125 36.746094 31.945312 36.875 30.558594 36.957031 L 28.085938 37.066406 L 27.195312 35.210938 C 26.148438 33.019531 25.679688 31.734375 25.351562 30.117188 C 25.21875 29.464844 25.074219 28.984375 25.03125 29.046875 C 24.960938 29.144531 25.609375 34.8125 25.871094 36.390625 L 25.972656 37.015625 L 20 37 C 13.527344 36.984375 13.191406 36.976562 12.839844 36.460938 Z M 12.839844 36.457031 "/>
    </g>
   </g>
  </g>
 </g>
 <g>
  <g clip-path="url(#3)">
   <g transform="translate(0,-1)">
    <g>
     <path d="M 16.148438 18.378906 C 16.386719 18.039062 16.921875 17.351562 17.335938 16.855469 L 17.636719 16.46875 L 22.699219 16.46875 L 25.257812 13.039062 C 26.246094 11.441406 27.179688 9.980469 27.339844 9.796875 C 27.976562 9.058594 29.289062 9.703125 29.277344 10.753906 L 25.671875 16.375 L 28.046875 16.429688 C 29.355469 16.457031 30.421875 16.523438 30.421875 16.574219 C 30.421875 16.628906 30.980469 16.480469 30.726562 16.882812 C 30.46875 17.289062 30.128906 17.929688 29.972656 18.308594 L 29.683594 19 L 15.71875 19 Z M 16.148438 18.378906 " fill="#70c544"/>
     <path d="M 12.839844 36.457031 C 12.632812 36.160156 12.417969 35.441406 12.351562 34.855469 C 12.289062 34.273438 12.207031 33.484375 12.167969 33.101562 C 12.035156 31.824219 12.996094 26.601562 13.402344 24.957031 C 13.621094 24.066406 14.101562 22.585938 14.46875 21.667969 L 15.132812 20 L 25.257812 20 L 25.257812 21.382812 C 25.253906 23.332031 24.824219 24.730469 26.550781 26.707031 L 27.847656 28.195312 C 25.917969 26.160156 26.484375 23.667969 26.523438 21.265625 C 26.519531 20.859375 26.507812 20 27.789062 20 C 29 20 29.804688 20.035156 29.691406 20.332031 C 29.351562 21.214844 29.167969 22.664062 29.253906 23.746094 C 29.378906 25.292969 30.027344 26.414062 31.660156 27.914062 C 33.902344 29.96875 33.941406 32.179688 34.046875 32.992188 C 34.195312 34.09375 33.75 35.328125 32.914062 36.164062 C 32.328125 36.746094 31.945312 36.875 30.558594 36.957031 L 28.085938 37.066406 L 27.195312 35.210938 C 26.148438 33.019531 25.679688 31.734375 25.351562 30.117188 C 25.21875 29.464844 25.074219 28.984375 25.03125 29.046875 C 24.960938 29.144531 25.609375 34.8125 25.871094 36.390625 L 25.972656 37.015625 L 20 37 C 13.527344 36.984375 13.191406 36.976562 12.839844 36.460938 Z M 12.839844 36.457031 " fill="#f3d481"/>
    </g>
   </g>
  </g>
 </g>
 <g>
  <g transform="translate(0,-1004.3622)">
   <path d="m 1,1043.3622 0,4 c 0,2.216 1.784,4 4,4 l 38,0 c 2.216,0 4,-1.784 4,-4 l 0,-4 c 0,2.216 -1.784,4 -4,4 l -38,0 c -2.216,0 -4,-1.784 -4,-4 z" opacity="0.1"/>
  </g>
 </g>
</svg>

<svg viewBox="0 0 48 48"><defs><linearGradient id="linearGradient3764" x1="1" x2="47" gradientUnits="userSpaceOnUse" gradientTransform="translate(-48.000001,0.00221467)"><stop stop-color="#1c89b6" stop-opacity="1"/><stop offset="1" stop-color="#1e96c8" stop-opacity="1"/></linearGradient><clipPath id="clipPath-998736565"><g transform="translate(0,-1004.3622)"><rect rx="4" y="1005.36" x="1" height="46" width="46" fill="#1890d0"/></g></clipPath><clipPath id="clipPath-011732942"><g transform="translate(0,-1004.3622)"><rect rx="4" y="1005.36" x="1" height="46" width="46" fill="#1890d0"/></g></clipPath></defs><g><path d="m 1 43 l 0 0.25 c 0 2.216 1.784 4 4 4 l 38 0 c 2.216 0 4 -1.784 4 -4 l 0 -0.25 c 0 2.216 -1.784 4 -4 4 l -38 0 c -2.216 0 -4 -1.784 -4 -4 z m 0 0.5 l 0 0.5 c 0 2.216 1.784 4 4 4 l 38 0 c 2.216 0 4 -1.784 4 -4 l 0 -0.5 c 0 2.216 -1.784 4 -4 4 l -38 0 c -2.216 0 -4 -1.784 -4 -4 z" opacity="0.02"/><path d="m 1 43.25 l 0 0.25 c 0 2.216 1.784 4 4 4 l 38 0 c 2.216 0 4 -1.784 4 -4 l 0 -0.25 c 0 2.216 -1.784 4 -4 4 l -38 0 c -2.216 0 -4 -1.784 -4 -4 z" opacity="0.05"/><path d="m 1 43 l 0 0.25 c 0 2.216 1.784 4 4 4 l 38 0 c 2.216 0 4 -1.784 4 -4 l 0 -0.25 c 0 2.216 -1.784 4 -4 4 l -38 0 c -2.216 0 -4 -1.784 -4 -4 z" opacity="0.1"/></g><g><rect width="46" height="46" x="-47" y="1" rx="4" transform="matrix(0,-1,1,0,0,0)" fill="url(#linearGradient3764)" fill-opacity="1"/></g><g><g clip-path="url(#clipPath-998736565)"><g opacity="0.1"><!-- color: #1e96c8 --><g><path d="m 16.15 18.379 c 0.238 -0.34 0.773 -1.027 1.188 -1.523 l 0.301 -0.387 l 5.063 0 l 2.559 -3.43 c 0.988 -1.598 1.922 -3.059 2.082 -3.242 c 0.637 -0.738 1.949 -0.094 1.938 0.957 l -3.605 5.621 l 2.375 0.055 c 1.309 0.027 2.375 0.094 2.375 0.145 c 0 0.055 0.559 -0.094 0.305 0.309 c -0.258 0.406 -0.598 1.047 -0.754 1.426 l -0.289 0.691 l -13.965 0 m 0.43 -0.621" fill="#000"/><path d="m 12.84 36.457 c -0.207 -0.297 -0.422 -1.016 -0.488 -1.602 c -0.063 -0.582 -0.145 -1.371 -0.184 -1.754 c -0.133 -1.277 0.828 -6.5 1.234 -8.145 c 0.219 -0.891 0.699 -2.371 1.066 -3.289 l 0.664 -1.668 l 10.125 0 l 0 1.383 c -0.004 1.949 -0.434 3.348 1.293 5.324 l 1.297 1.488 c -1.93 -2.035 -1.363 -4.527 -1.324 -6.93 c -0.004 -0.406 -0.016 -1.266 1.266 -1.266 c 1.211 0 2.02 0.035 1.902 0.332 c -0.34 0.883 -0.523 2.332 -0.438 3.414 c 0.125 1.547 0.773 2.668 2.406 4.168 c 2.242 2.055 2.281 4.266 2.387 5.078 c 0.148 1.102 -0.297 2.336 -1.133 3.172 c -0.586 0.582 -0.969 0.711 -2.355 0.793 l -2.473 0.109 l -0.891 -1.855 c -1.047 -2.191 -1.516 -3.477 -1.844 -5.094 c -0.133 -0.652 -0.277 -1.133 -0.32 -1.07 c -0.07 0.098 0.578 5.766 0.84 7.344 l 0.102 0.625 l -5.973 -0.016 c -6.473 -0.016 -6.809 -0.023 -7.16 -0.539 m 0 -0.004" fill="#000"/></g></g></g></g><g><g clip-path="url(#clipPath-011732942)"><g transform="translate(0,-1)"><!-- color: #1e96c8 --><g><path d="m 16.15 18.379 c 0.238 -0.34 0.773 -1.027 1.188 -1.523 l 0.301 -0.387 l 5.063 0 l 2.559 -3.43 c 0.988 -1.598 1.922 -3.059 2.082 -3.242 c 0.637 -0.738 1.949 -0.094 1.938 0.957 l -3.605 5.621 l 2.375 0.055 c 1.309 0.027 2.375 0.094 2.375 0.145 c 0 0.055 0.559 -0.094 0.305 0.309 c -0.258 0.406 -0.598 1.047 -0.754 1.426 l -0.289 0.691 l -13.965 0 m 0.43 -0.621" fill="#70c544"/><path d="m 12.84 36.457 c -0.207 -0.297 -0.422 -1.016 -0.488 -1.602 c -0.063 -0.582 -0.145 -1.371 -0.184 -1.754 c -0.133 -1.277 0.828 -6.5 1.234 -8.145 c 0.219 -0.891 0.699 -2.371 1.066 -3.289 l 0.664 -1.668 l 10.125 0 l 0 1.383 c -0.004 1.949 -0.434 3.348 1.293 5.324 l 1.297 1.488 c -1.93 -2.035 -1.363 -4.527 -1.324 -6.93 c -0.004 -0.406 -0.016 -1.266 1.266 -1.266 c 1.211 0 2.02 0.035 1.902 0.332 c -0.34 0.883 -0.523 2.332 -0.438 3.414 c 0.125 1.547 0.773 2.668 2.406 4.168 c 2.242 2.055 2.281 4.266 2.387 5.078 c 0.148 1.102 -0.297 2.336 -1.133 3.172 c -0.586 0.582 -0.969 0.711 -2.355 0.793 l -2.473 0.109 l -0.891 -1.855 c -1.047 -2.191 -1.516 -3.477 -1.844 -5.094 c -0.133 -0.652 -0.277 -1.133 -0.32 -1.07 c -0.07 0.098 0.578 5.766 0.84 7.344 l 0.102 0.625 l -5.973 -0.016 c -6.473 -0.016 -6.809 -0.023 -7.16 -0.539 m 0 -0.004" fill="#f3d481"/></g></g></g></g><g><g transform="translate(0,-1004.3622)"><path d="m 1 1043.36 0 4 c 0 2.216 1.784 4 4 4 l 38 0 c 2.216 0 4 -1.784 4 -4 l 0 -4 c 0 2.216 -1.784 4 -4 4 l -38 0 c -2.216 0 -4 -1.784 -4 -4 z" opacity="0.1"/></g></g></svg>
